assets/mimiclaw/original.svg

<svg fill="#ff4f40" viewBox="0 0 16 16" xmlns="http://www.w3.org/2000/svg"><path d="m5 3h6v1h-6zm-1 1h8v1h-8zm-1 1h10v1h-10zm0 1h10v1h-10zm0 1h10v1h-10zm1 1h8v1h-8zm1 1h6v1h-6zm0 3h6v1h-6zm1 1h4v1h-4z"/><path d="m1 6h2v1h-2zm1-1h1v1h-1zm0 2h1v1h-1zm11-1h2v1h-2zm0-1h1v1h-1zm0 2h1v1h-1z" fill="#ff775f"/><path d="m6 4h1v1h-1zm3 0h1v1h-1z" fill="#f5fbff"/><path d="m6 5h1v1h-1zm3 0h1v1h-1z" fill="#081016"/></svg>

<svg xmlns="http://www.w3.org/2000/svg" fill="#ff4f40" viewBox="0 0 16 16"><path d="M5 3h6v1H5zM4 4h8v1H4zM3 5h10v1H3zm0 1h10v1H3zm0 1h10v1H3zm1 1h8v1H4zm1 1h6v1H5zm0 3h6v1H5zm1 1h4v1H6z"/><path fill="#ff775f" d="M1 6h2v1H1zm1-1h1v1H2zm0 2h1v1H2zm11-1h2v1h-2zm0-1h1v1h-1zm0 2h1v1h-1z"/><path fill="#f5fbff" d="M6 4h1v1H6zm3 0h1v1H9z"/><path fill="#081016" d="M6 5h1v1H6zm3 0h1v1H9z"/></svg>
